assets/misc-grey/MiscGrey82.svg

<svg xmlns="http://www.w3.org/2000/svg" viewBox="0 0 37 44"><path fill-rule="evenodd" d="M31.48 7.431h-7.12l4.35-4.355c.59-.586.59-1.535 0-2.121a1.498 1.498 0 00-2.12 0L19.7 7.849c-.29.281-.44.662-.44 1.06s.15.779.44 1.061l6.94 6.941c.29.293.67.44 1.06.44.38 0 .76-.147 1.06-.44a1.51 1.51 0 000-2.121l-4.36-4.359h7.08c1.37 0 2.5 1.121 2.5 2.5v25.224c0 1.379-1.13 2.5-2.5 2.5H6.25c-1.38 0-2.5-1.121-2.5-2.5V12.931c0-1.379 1.12-2.5 2.5-2.5h7.48a1.5 1.5 0 100-3H6.25c-3.03 0-5.5 2.467-5.5 5.5v25.224c0 3.033 2.47 5.5 5.5 5.5h25.23c3.03 0 5.5-2.467 5.5-5.5V12.931c0-3.033-2.47-5.5-5.5-5.5z" clip-rule="evenodd"/></svg>

<svg width="37" height="44" viewBox="0 0 37 44" fill="none" xmlns="http://www.w3.org/2000/svg">
<path fill-rule="evenodd" clip-rule="evenodd" d="M31.48 7.431H24.36L28.71 3.076C29.3 2.49 29.3 1.541 28.71 0.955003C28.13 0.369003 27.18 0.369003 26.59 0.955003L19.7 7.849C19.41 8.13 19.26 8.511 19.26 8.909C19.26 9.307 19.41 9.688 19.7 9.97L26.64 16.911C26.93 17.204 27.31 17.351 27.7 17.351C28.08 17.351 28.46 17.204 28.76 16.911C29.34 16.325 29.34 15.376 28.76 14.79L24.4 10.431H31.48C32.85 10.431 33.98 11.552 33.98 12.931V38.155C33.98 39.534 32.85 40.655 31.48 40.655H6.25C4.87 40.655 3.75 39.534 3.75 38.155V12.931C3.75 11.552 4.87 10.431 6.25 10.431H13.73C14.56 10.431 15.23 9.759 15.23 8.931C15.23 8.102 14.56 7.431 13.73 7.431H6.25C3.22 7.431 0.75 9.898 0.75 12.931V38.155C0.75 41.188 3.22 43.655 6.25 43.655H31.48C34.51 43.655 36.98 41.188 36.98 38.155V12.931C36.98 9.898 34.51 7.431 31.48 7.431Z" fill="#1A1919"/>
</svg>
